svg/fluentui-system-icons/ic_fluent_arrows_bidirectional_20_filled.svg

<svg width="20" height="20" viewBox="0 0 20 20" fill="none" xmlns="http://www.w3.org/2000/svg">
<path d="M6.67769 5.03266C6.87173 5.10643 7 5.29243 7 5.50002V8.00002H13V5.50002C13 5.29243 13.1283 5.10643 13.3223 5.03266C13.5163 4.95889 13.7358 5.01268 13.8737 5.16784L17.8737 9.66784C18.0421 9.85728 18.0421 10.1428 17.8737 10.3322L13.8737 14.8322C13.7358 14.9874 13.5163 15.0412 13.3223 14.9674C13.1283 14.8936 13 14.7076 13 14.5V12H7V14.5C7 14.7076 6.87173 14.8936 6.67769 14.9674C6.48365 15.0412 6.26421 14.9874 6.1263 14.8322L2.1263 10.3322C1.9579 10.1428 1.9579 9.85728 2.1263 9.66784L6.1263 5.16784C6.26421 5.01268 6.48365 4.95889 6.67769 5.03266Z" fill="#212121"/>
</svg>

<svg xmlns="http://www.w3.org/2000/svg" width="20" height="20"><path d="M6.678 5.033A.5.5 0 0 1 7 5.5V8h6V5.5a.5.5 0 0 1 .874-.332l4 4.5a.5.5 0 0 1 0 .664l-4 4.5A.5.5 0 0 1 13 14.5V12H7v2.5a.5.5 0 0 1-.874.332l-4-4.5a.5.5 0 0 1 0-.664l4-4.5a.5.5 0 0 1 .552-.135Z"/></svg>
